X:3211
L:1/8
M:4/4
K:G
|: Bc | d2 B2 c2 e2 | d2 B3 z Bc | d2 B2 c2 e2 | d2 B3 z Bc | d2 B2 G2 E2 | c2 A2 F2 DD | 
 G2 GG GA BA | G4 z2 :|

